X:123
M:4/4
L:1/4
K:Eb
B2 B G | E G B B | c c !fermata!B2 | B2 B A | B E A G | F F !fermata!E2 | B2 B B | e e e B | c B !fermata!G2 | G2 A B | G A G E | F F !fermata!E2 | E2 G F | G =A B B | G =A !fermata!B2 | e2 e d | c B B A | B A !fermata!G2 | F2 G A | B B c B | c d !fermata!e2 | B2 B A | G A B E | G F !fermata!E2 | G2 A B | c B B c | d c !fermata!B2 | e2 d c | f f d B | c d !fermata!e2 | e2 d c | B c d B | A B !fermata!G2 | e2 d c | B c d B | A B !fermata!G2 | e2 d c | B c d B | A B !fermata!G2 | c2 B A | B E A G | F F !fermata!E2 | E2 B B | G A B c | c B !fermata!B2 | !sintro!B2 A G | A F G F | E D !fermata!E2 !eintro!|]
